shader_type canvas_item;
//
//uniform sampler2D noise : repeat_enable;
//uniform vec2 scroll = vec2(0.05, 0.05);
//uniform float distortion_strenght : hint_range(-1,1) = 0.2;
//
//void fragment() {
	//vec4 noise_col = texture(noise, UV + scroll * TIME);
	//vec4 screen_col = texture(SCREEN_TEXTURE,
	//SCREEN_UV + distortion_strenght * noise_col.rr);
	//COLOR = noise_col;
